resources/svg/faders-horizontal.svg

<svg xmlns="http://www.w3.org/2000/svg" viewBox="0 0 256 256" fill="currentColor"><path d="M143.999,171.99353a8.00008,8.00008,0,0,1-8,8h-96a8,8,0,0,1,0-16h96A8.00008,8.00008,0,0,1,143.999,171.99353Zm72-8h-40v-16a8,8,0,0,0-16,0v48a8,8,0,0,0,16,0v-16h40a8,8,0,0,0,0-16Zm-176-72.001,32,.001h0a8,8,0,0,0,0-16l-32-.001h0a8,8,0,0,0,0,16Zm64,24.001a8.00008,8.00008,0,0,0,8-8v-16l104-.001a8,8,0,1,0,0-16l-104,.001v-16a8,8,0,1,0-16,0v48A8.00009,8.00009,0,0,0,103.999,115.99353Z"/></svg>

<svg xmlns="http://www.w3.org/2000/svg" viewBox="0 0 256 256" fill="currentColor"><path d="M144,172a8,8,0,0,1-8,8H40a8,8,0,0,1,0-16h96A8,8,0,0,1,144,172Zm72-8H176V148a8,8,0,0,0-16,0v48a8,8,0,0,0,16,0V180h40a8,8,0,0,0,0-16ZM40,92H72a8,8,0,0,0,0-16H40a8,8,0,0,0,0,16Zm64,24a8,8,0,0,0,8-8V92H216a8,8,0,0,0,0-16H112V60a8,8,0,0,0-16,0v48A8,8,0,0,0,104,116Z"/></svg>
